X: 1200
T: An Cupan Tae
R: jig
M: 6/8
K: Edorian
EFE GFE|dcA BAd|EFE GFE|dcA B2 G|
~E3 GG/F/E|dcA B2 d|eBe B^AB|AFD E2:|
eBB eBB|e/f/ge fed|eBB eBg|afd e2 g|
eBB eBB|ege fed|eBe B^AB|AFD E2:|

